X: 39623
T: Tempest, The
R: reel
M: 4/4
K: Edorian
e2dB AFF2|EFdF eFdF|e2dB AF F2|EFBF AFEF|
e2dB AFF2|EFdF eFdF|EFGB AFdF|FEdA FEE2:|
e2fe dBAB|Beed BAFA|e2fe defg|fedf e3B|
fgeg fedB|edBA BAFA|EFGB AFdF|FEdA FEE2:|

